app/img/partners__slide.svg

<svg width="200" height="96" viewBox="0 0 200 96" fill="none" xmlns="http://www.w3.org/2000/svg">
<path d="M61.7714 62.7649H74.4643V66.9057H68.4262V95.9999H61.7714V62.7649Z" fill="white" fill-opacity="0.5"/>
<path d="M81.9926 83.5232L83.1331 66.9057H83.5151L84.6556 83.5232H81.9926ZM74.6229 95.9999H81.1385L81.7552 87.1736H84.893L85.5123 95.9999H92.0253L88.5546 62.7649H78.0936L74.6229 95.9999Z" fill="white" fill-opacity="0.5"/>
<path d="M101.554 84.3676V90.6333C101.554 91.4778 102.208 91.7229 102.59 91.7229C103.218 91.7229 103.654 91.2054 103.654 90.6333V82.8966C103.654 81.8614 103.463 80.7173 100.981 80.7173H98.2793V77.0669H101.09C102.972 77.0669 103.654 76.631 103.654 74.5878V67.9953C103.654 67.4233 103.218 66.9057 102.59 66.9057C102.208 66.9057 101.554 67.1236 101.554 67.9953V73.4164H94.896V68.7036C94.896 66.3881 95.1688 62.7649 99.8346 62.7649H105.346C110.012 62.7649 110.312 66.3881 110.312 68.7036V74.0158C110.312 77.6389 107.774 78.6196 105.783 78.5379V78.8648C110.257 78.7558 110.312 82.1883 110.312 83.3597V90.0612C110.312 92.404 110.012 95.9999 105.346 95.9999H99.8346C95.1688 95.9999 94.896 92.404 94.896 90.0612V84.3676H101.554Z" fill="white" fill-opacity="0.5"/>
<path d="M114.678 62.7649H130.094V95.9999H123.437V66.9057H121.336V95.9999H114.678V62.7649Z" fill="white" fill-opacity="0.5"/>
<path d="M141.118 81.0442V66.9057H141.991C142.7 66.9057 143.219 67.505 143.219 68.5674V79.3824C143.219 80.4448 142.7 81.0442 141.991 81.0442H141.118ZM134.46 95.9999H141.118V84.6946H144.938C149.576 84.6946 149.876 81.0986 149.876 78.7558V68.7036C149.876 66.3881 149.576 62.7649 144.938 62.7649H134.46V95.9999Z" fill="white" fill-opacity="0.5"/>
<path d="M163.001 90.6333C163.001 91.2054 162.564 91.7229 161.937 91.7229C161.555 91.7229 160.9 91.4778 160.9 90.6333V67.9953C160.9 67.1236 161.555 66.9057 161.937 66.9057C162.564 66.9057 163.001 67.4233 163.001 67.9953V90.6333ZM154.242 90.0612C154.242 92.404 154.543 95.9999 159.181 95.9999H164.72C169.358 95.9999 169.658 92.404 169.658 90.0612V68.7036C169.658 66.3881 169.358 62.7649 164.72 62.7649H159.181C154.543 62.7649 154.242 66.3881 154.242 68.7036V90.0612Z" fill="white" fill-opacity="0.5"/>
<path d="M191.323 62.7649H200V95.9999H193.342V75.1599H193.097L189.659 95.9999H184.338L180.928 75.1599H180.682V95.9999H174.025V62.7649H182.674L187.012 86.1384L191.323 62.7649Z" fill="white" fill-opacity="0.5"/>
<path d="M53.1467 17.3258C51.1085 8.41771 46.0008 1.1714 45.2968 0C44.1836 1.66175 40.1099 8.06357 38.039 15.1464C35.7771 23.0738 35.4442 30.1022 36.2245 36.9944C36.9994 43.9138 39.9271 51.0239 39.9271 51.0239C41.4824 54.7288 43.8125 58.7333 45.3295 60.6947C47.5533 57.8071 52.6637 49.1987 54.2572 37.9751C55.1439 31.7095 55.1821 26.2339 53.1467 17.3258ZM45.2968 58.4609C44.2954 56.5812 42.7402 53.0126 42.5929 47.4552C42.5547 42.1158 44.702 37.512 45.3295 36.5585C45.8889 37.512 47.7388 41.5165 47.9598 46.9921C48.1099 52.3315 46.3309 56.554 45.2968 58.4609ZM52.5546 32.445C52.4782 35.8502 52.0716 39.4461 51.5532 41.5982C51.7388 37.8934 51.294 32.6902 50.4427 28.6039C49.5914 24.5449 47.1822 17.7344 45.2586 14.6016C43.4824 17.5982 41.2941 23.4824 40.1481 28.5767C38.9967 33.6709 38.964 39.8548 38.964 41.7072C38.6584 40.1544 37.8944 34.5699 38.1099 28.9853C38.29 24.3814 39.3705 19.6141 39.9626 17.4348C42.2218 10.1612 44.7784 5.50284 45.2586 4.7673C45.7388 5.50284 48.9584 11.2509 50.6283 17.2713C52.2899 23.2917 52.6255 29.067 52.5546 32.445Z" fill="white" fill-opacity="0.5"/>
<path d="M48.7527 62.765H33.2576V73.1441C33.2713 73.1441 33.2822 73.1169 33.2958 73.1169C36.9465 69.4665 42.8674 69.4665 46.5208 73.1169C50.1715 76.7401 50.1715 82.6515 46.5208 86.3019C46.5045 86.3292 46.4881 86.3292 46.4717 86.3564C46.4526 86.3564 46.4335 86.3837 46.4171 86.4109C42.7746 90.0068 38.0161 91.8048 33.2576 91.8048C28.4773 91.8048 23.697 90.0068 20.0517 86.3564C13.6234 79.9546 12.8621 70.0113 17.7625 62.765C18.4228 61.7843 19.184 60.8581 20.0517 59.9863C23.697 56.3359 28.4773 54.538 33.2576 54.538V29.5845C14.8894 29.5845 0 44.4312 0 62.765C0 81.0987 14.8894 95.9728 33.2576 95.9728C42.8346 95.9728 51.4621 91.9137 57.5303 85.4574V62.765H48.7527Z" fill="white" fill-opacity="0.5"/>
</svg>

<svg width="200" height="96" fill="none" xmlns="http://www.w3.org/2000/svg"><path d="M61.771 62.765h12.693v4.14h-6.038V96h-6.655V62.765zM81.993 83.523l1.14-16.617h.382l1.14 16.617h-2.662zM74.623 96h6.515l.617-8.826h3.138l.62 8.826h6.512l-3.47-33.235H78.094L74.623 96zM101.554 84.368v6.265c0 .845.654 1.09 1.036 1.09.628 0 1.064-.518 1.064-1.09v-7.736c0-1.036-.191-2.18-2.673-2.18h-2.702v-3.65h2.811c1.882 0 2.564-.436 2.564-2.48v-6.592c0-.572-.436-1.09-1.064-1.09-.382 0-1.036.219-1.036 1.09v5.421h-6.658v-4.712c0-2.316.273-5.94 4.939-5.94h5.511c4.666 0 4.966 3.624 4.966 5.94v5.312c0 3.623-2.538 4.604-4.529 4.522v.327c4.474-.11 4.529 3.323 4.529 4.495v6.701c0 2.343-.3 5.939-4.966 5.939h-5.511c-4.666 0-4.939-3.596-4.939-5.939v-5.693h6.658zM114.678 62.765h15.416V96h-6.657V66.906h-2.101V96h-6.658V62.765zM141.118 81.044V66.906h.873c.709 0 1.228.599 1.228 1.661v10.815c0 1.063-.519 1.662-1.228 1.662h-.873zM134.46 96h6.658V84.695h3.82c4.638 0 4.938-3.596 4.938-5.94V68.705c0-2.316-.3-5.94-4.938-5.94H134.46V96zM163.001 90.633c0 .572-.437 1.09-1.064 1.09-.382 0-1.037-.245-1.037-1.09V67.995c0-.871.655-1.09 1.037-1.09.627 0 1.064.518 1.064 1.09v22.638zm-8.759-.572c0 2.343.301 5.939 4.939 5.939h5.539c4.638 0 4.938-3.596 4.938-5.939V68.704c0-2.316-.3-5.94-4.938-5.94h-5.539c-4.638 0-4.939 3.624-4.939 5.94V90.06zM191.323 62.765H200V96h-6.658V75.16h-.245L189.659 96h-5.321l-3.41-20.84h-.246V96h-6.657V62.765h8.649l4.338 23.373 4.311-23.373zM53.147 17.326C51.109 8.418 46 1.17 45.297 0c-1.113 1.662-5.187 8.064-7.258 15.146-2.262 7.928-2.595 14.956-1.815 21.848.775 6.92 3.703 14.03 3.703 14.03 1.555 3.705 3.886 7.71 5.403 9.67 2.223-2.887 7.334-11.495 8.927-22.719.887-6.266.925-11.741-1.11-20.65zm-7.85 41.135c-1.002-1.88-2.557-5.448-2.704-11.006-.038-5.34 2.109-9.943 2.736-10.896.56.953 2.41 4.958 2.63 10.433.15 5.34-1.628 9.562-2.662 11.469zm7.258-26.016c-.077 3.405-.483 7.001-1.002 9.153.186-3.705-.259-8.908-1.11-12.994-.852-4.06-3.26-10.87-5.184-14.002-1.777 2.996-3.965 8.88-5.11 13.975-1.152 5.094-1.185 11.278-1.185 13.13-.306-1.553-1.07-7.137-.854-12.722.18-4.604 1.26-9.37 1.853-11.55 2.259-7.274 4.815-11.932 5.296-12.668.48.736 3.7 6.484 5.37 12.504 1.66 6.02 1.997 11.796 1.926 15.174z" fill="#fff" fill-opacity=".5"/><path d="M48.753 62.765H33.258v10.38c.013 0 .024-.028.038-.028 3.65-3.65 9.571-3.65 13.225 0 3.65 3.623 3.65 9.534 0 13.185-.017.027-.033.027-.05.054-.018 0-.037.028-.054.055a18.675 18.675 0 01-13.16 5.394c-4.78 0-9.56-1.798-13.205-5.449-6.429-6.401-7.19-16.345-2.29-23.591.66-.98 1.422-1.907 2.29-2.779 3.645-3.65 8.425-5.448 13.206-5.448V29.585C14.889 29.584 0 44.43 0 62.764s14.89 33.208 33.258 33.208c9.577 0 18.204-4.06 24.272-10.516V62.765h-8.777z" fill="#fff" fill-opacity=".5"/></svg>
